X: 1258
T: The Miller's Maid
M:C|
L:1/8
R:Reel
B:O'Neill's 1258
N:Collected by Delaney
Z:Transcribed by Trish O'Neil
K:D
B | A2(FA) BcdB | A2(FA) BEEB | A2(FA) Beec | dABG "End"FD D :|
c | dAFA dfaf | gfed cdec | dAFA BABc | dABG FDDc |
  | dAFA dfaf | gfed cde2 | defg abaf | gbag fd d |]


